X:85
T:RVW2/2/85 The Farmer's Boy
C:John Denny, Billericay, Essex, 25 April 1904
L:1/4
Q:1/4=100
M:4/4
I:linebreak $
K:G
"^(Editorial suggestion  " G | A A A D | A (A/B/) c (B/A/) | G D B, C |$ D3 D | B,/B,/ D D3/2 D/ | 
w: The|sun had set be-|hind yon _ hill a- *|cross the drea- ry|moor When|wea- ry and lame a|
E E D D |$ G G A A | (B3/2 A/ G) D | E (B/A/) G F | G3 |] 
w: boy there came un-|to a far- mer's|door _ _ un-|to a _ far- mer's|door.|



